X: 186
T: Old Black Joe.
C: Stephen C. Foster 1860.
C: Arr. by J. S. Fearis.
B: "The Everyday Song Book", 1927
F: http://www.library.pitt.edu/happybirthday/pdf/The_Everyday_Song_Book.pdf
Z: 2017 John Chambers <jc:trillian.mit.edu>
M: 4/4
L: 1/8
K: D
%%center Arrangement copyright, 1911, by The Cable Company.
% - - - - - - - - - - - - - - - - - - - - - - - - - - - - -
[| [D2D2] [FD]> [GE] [A3F3] [A/F/] [A/F/] | [BG] [dB] [cA] [BG] [A4F4] [DD] | [D2D2] [FD]> [GE]
w: 1.~Gone are the days when my heart was young and gay;* Gone are my
w: 2.~Why do I weep when my heart should feel no pain?*   Why do I
w: 3.~Where are the hearts once so hap-py and so free?    The chil-dren so
%
[A3F3] [A/F/] [A/F/] | [BG] [AF] [GE] [FD] [E4C4] | [D2D2] [FD]> [GE] [A3F3] [A/F/] [A/F/] |
w: friends from the cot-ton-fields a-way; Gone from the earth to a
w: sigh that my friends come not a-gain?  Griev-ing for forms now de-
w: dear that I held up-on my knee?        Gone to the shore where my
%
[BG] [dB] [cA] [BG] [A3F3] [dF] | [cE]> [dF] [eG] [cE] [dF] [BG] [AF] [BD] |
w: bet-ter land I know,   I hear their gen-tle voi-ces call-ing,
w: part-ed long a-go,     I hear their gen-tle voi-ces call-ing,
w: soul has longed to go, I hear their gen-tle voi-ces call-ing,
%
"^rall."[F2D2] [E2C2] HD3 "^Refrain."[| !mf![AF] | [FD] [AF] z !pp![AF] [FD] [AF] z !mf![A/F/] [A/F/] | [BG] [dB] [cA] [BG]
w: "Old Black Joe!"  I'm com-ing,  I'm com-ing,  For my head is bend-ing
%
[A3F3] [dF] | [cE]>[dF] [eG] [cE] [dF] [BG] [AF] [BD] | H[F2D2] H[E2C2] H[D4D4] |]
w: low;  I hear those gen-tle voi-ces call-ing, "Old Black Joe!"
% - - - - - - - - - - - - - - - - - - - - - - - - - - - - -

%%sep 1 1 500
%%sep 1 1 500

